X: 8613
T: Cronin's Rambles
R: hornpipe
M: 4/4
K: Gmajor
|:GABd gd (3Bcd|gece d2 (3Bcd|gdcB cedc|BGAF DEFD|
GABd gd (3Bcd|gece d2 (3Bcd|gdBd cAFA|G2GF ~G3z:|
D2|GFGA BGAB|cBce dc (3def|gdBG cedc|BGAF DEFD|
GFGA BGAB|cBce dc (3def|gdBG cAFA|G2 G2 G2:|
|:G2|GBdf gdBd|fdec defd|gdBG cedc|BGAF DEFD|
GBdf gdBG|fece d2 (3def|gdBG cAFA|G2 G2 G2:|

